X:1
T:Title
%%score ( 1 2 ) ( 3 4 )
L:1/8
Q:1/4=90
M:12/8
K:Ab
V:1 bass nm="Strings 1, Tenor"
V:2 bass 
V:3 bass nm="Clarinet, Bass"
V:4 bass 
V:1
 z12 | z2 [A,C] [A,C]2 [A,C] .[A,C]3 z3 | z2 [A,C] [A,C]2 [A,C] .[A,C]3 z3 | %3
 z2 [E,D] [E,D]2 [E,D] .[B,D]3 z3 | z2 [A,E] [A,E]2 [A,E] .[A,E]3 z3 | %5
 z2 [A,C] [A,C]2 [A,C] .[A,C]3 z3 | z2 [A,C] [A,C]2 [A,C] .[A,C]3 z3 | %7
 z2[K:treble] [G,E] [G,E]2 [G,E] [G,E]2 [CE] [B,E]2 [A,=D] | %8
 E6- E2[K:bass][Q:1/4=90] z z3[Q:1/4=12] | D6- D2 z z3 | z2 C C2 C C2 E, E2 =D | D6- D2 z z3 | %12
 C6- C2 z z3 | D6- D2 z z3 | C6- C2 z z3[K:treble] | E6- E2[Q:1/4=90] z z3[Q:1/4=12] | %16
 [A,C]6- [A,C]2 z z3 |] %17
V:2
 x12 | x12 | x12 | x12 | x12 | x12 | x12 | x2[K:treble] x10 | B,3 C3 D2[K:bass] E, E2 =D | %9
 z2 B, B,2 =A, B,2 G, C2 B, | E,6- E,2 z z3 | z2 B, B,2 =A, B,2 G, _A,2 B, | %12
 z2 G, B,2 A, G,2 C F,2 A, | z2 A, A,2 B, A,2 D F,2 A, | z2 A, A,2 A, A,2 E, A,2[K:treble] C | %15
 z2 C A,2 B, C2 [A,C] [B,D]2 [A,C] | x12 |] %17
V:3
 z6 z2 E, F,2 A, | F,6- F,2 z z3 | F,6- F,2 z z3 | G,6- G,2 z z3 | C6- C2 z z3 | F,6- F,2 z z3 | %6
w: 1.~Oh,~ let~ me~|grow~ *|day~ *|Lord,~ *|way;~ *|faith~ *|
 F,6- F,2 z z3 | B,6- B,2 z z3 | G,3 z3 z6 | z2 [E,G,] [E,G,]2 [E,_G,] .[E,=G,]3 z3 | %10
w: strong,~ *|praise~ *|song.~||
 z2 [A,,A,] [C,A,]2 [E,A,] .[A,,A,]3 z3 | z2 [E,G,] [E,G,]2 [E,_G,] .[E,=G,]3 z3 | %12
w: ||
 z2 [C,=E,] [C,G,]2 [C,F,] .[C,E,]3 z3 | z2 [D,F,] [D,F,]2 [D,_G,] .[D,F,]3 z3 | %14
w: ||
 z2 [A,,E,] [A,,E,]2 [A,,F,] .[A,,E,]3 z3 | z2 [A,,A,] [C,A,]2 [E,G,] A,2 [A,,E,] [E,G,]2 [A,,E,] | %16
w: ||
 [A,,E,]6- [A,,E,]2 z z3 |] %17
w: |
V:4
 x12 | z2 A,, A,,2 A,, A,,2 E, F,2 A, | z2 A,, A,,2 A,, A,,2 E, F,2 A, | %3
w: |* * * * * * to~|* * * * * * fect,~|
 z2 B,, B,,2 B,, E,2 A, B,2 _C | z2 A,, C,2 E, A,,2 E, F,2 A, | z2 A,, A,,2 A,, A,,2 E, F,2 A, | %6
w: * * * * * * al|* * * * * * my~|* * * * * * er~|
 z2 A,, A,,2 A,, A,,2 _G, =G,2 A, | z2 B,, B,,2 B,, B,,2 [B,,A,] [B,,G,]2 [B,,F,] | %8
w: * * * * * * may~|* * * * * * my~|
 [E,,E,]3- [E,,-E,-A,]3 [E,,E,B,-]2 B, z3 | x12 | x12 | x12 | x12 | x12 | x12 | x12 | x12 |] %17
w: |||||||||

